papirus/48x48/apps/octopi.svg

<?xml version="1.0" encoding="UTF-8" standalone="no"?>
<!-- Created with Inkscape (http://www.inkscape.org/) -->

<svg
   xmlns:dc="http://purl.org/dc/elements/1.1/"
   xmlns:cc="http://creativecommons.org/ns#"
   xmlns:rdf="http://www.w3.org/1999/02/22-rdf-syntax-ns#"
   xmlns:svg="http://www.w3.org/2000/svg"
   xmlns="http://www.w3.org/2000/svg"
   xmlns:xlink="http://www.w3.org/1999/xlink"
   xmlns:sodipodi="http://sodipodi.sourceforge.net/DTD/sodipodi-0.dtd"
   xmlns:inkscape="http://www.inkscape.org/namespaces/inkscape"
   id="svg2817"
   height="48"
   width="48"
   version="1.0"
   inkscape:version="0.91 r"
   sodipodi:docname="octopi.svg">
  <metadata
     id="metadata57">
    <rdf:RDF>
      <cc:Work
         rdf:about="">
        <dc:format>image/svg+xml</dc:format>
        <dc:type
           rdf:resource="http://purl.org/dc/dcmitype/StillImage" />
        <dc:title />
      </cc:Work>
    </rdf:RDF>
  </metadata>
  <sodipodi:namedview
     pagecolor="#ffffff"
     bordercolor="#666666"
     borderopacity="1"
     objecttolerance="10"
     gridtolerance="10"
     guidetolerance="10"
     inkscape:pageopacity="0"
     inkscape:pageshadow="2"
     inkscape:window-width="1600"
     inkscape:window-height="840"
     id="namedview55"
     showgrid="false"
     inkscape:zoom="12.239653"
     inkscape:cx="22.782719"
     inkscape:cy="24"
     inkscape:window-x="-4"
     inkscape:window-y="34"
     inkscape:window-maximized="1"
     inkscape:current-layer="svg2817" />
  <defs
     id="defs2819">
    <linearGradient
       id="linearGradient2815"
       y2="17.5"
       spreadMethod="reflect"
       gradientUnits="userSpaceOnUse"
       x2="3.0052"
       y1="17.5"
       x1="44.995">
      <stop
         id="stop3277"
         style="stop-color:#fff;stop-opacity:0"
         offset="0" />
      <stop
         id="stop3283"
         style="stop-color:#fff"
         offset=".245" />
      <stop
         id="stop3285"
         style="stop-color:#fff"
         offset=".77350" />
      <stop
         id="stop3279"
         style="stop-color:#fff;stop-opacity:0"
         offset="1" />
    </linearGradient>
    <linearGradient
       id="linearGradient2813"
       y2="8"
       gradientUnits="userSpaceOnUse"
       x2="26"
       y1="22"
       x1="26">
      <stop
         id="stop3829"
         style="stop-color:#fff"
         offset="0" />
      <stop
         id="stop4295"
         style="stop-color:#fff"
         offset=".30213" />
      <stop
         id="stop4293"
         style="stop-color:#fff;stop-opacity:.69020"
         offset=".34361" />
      <stop
         id="stop3832"
         style="stop-color:#fff;stop-opacity:0"
         offset="1" />
    </linearGradient>
    <linearGradient
       id="linearGradient2811"
       y2="45.934"
       gradientUnits="userSpaceOnUse"
       x2="43.007"
       gradientTransform="matrix(1.2822 0 0 1.1747 -6.0702 -5.3032)"
       y1="30.555"
       x1="23.452">
      <stop
         id="stop4561"
         style="stop-color:#fff;stop-opacity:0"
         offset="0" />
      <stop
         id="stop4563"
         style="stop-color:#fff;stop-opacity:0"
         offset="1" />
    </linearGradient>
    <linearGradient
       id="linearGradient2809"
       y2="45.042"
       gradientUnits="userSpaceOnUse"
       x2="15.464"
       y1="7.9757"
       x1="15.464">
      <stop
         id="stop3297"
         style="stop-color:#c9af8b"
         offset="0" />
      <stop
         id="stop3299"
         style="stop-color:#ad8757"
         offset=".23942" />
      <stop
         id="stop3301"
         style="stop-color:#c2a57f"
         offset=".27582" />
      <stop
         id="stop3303"
         style="stop-color:#9d7d53"
         offset="1" />
    </linearGradient>
    <linearGradient
       id="linearGradient2807"
       y2="37.277"
       gradientUnits="userSpaceOnUse"
       x2="24.997"
       gradientTransform="matrix(1.2822 0 0 1.5573 -6.0702 -15.291)"
       y1="15.378"
       x1="24.823">
      <stop
         id="stop3201"
         style="stop-color:#dac197"
         offset="0" />
      <stop
         id="stop3203"
         style="stop-color:#c1a581"
         offset=".23942" />
      <stop
         id="stop3205"
         style="stop-color:#dbc298"
         offset=".27582" />
      <stop
         id="stop3207"
         style="stop-color:#a68b60"
         offset="1" />
    </linearGradient>
    <radialGradient
       id="radialGradient2805"
       xlink:href="#linearGradient3681"
       gradientUnits="userSpaceOnUse"
       cy="41.5"
       cx="5"
       gradientTransform="matrix(.59382 0 0 1.5367 41.141 -103.94)"
       r="5" />
    <linearGradient
       id="linearGradient2803"
       y2="35"
       gradientUnits="userSpaceOnUse"
       x2="17.554"
       gradientTransform="matrix(1.757 0 0 1.397 -17.394 -16.412)"
       y1="46"
       x1="17.554">
      <stop
         id="stop3705"
         style="stop-opacity:0"
         offset="0" />
      <stop
         id="stop3711"
         offset=".5" />
      <stop
         id="stop3707"
         style="stop-opacity:0"
         offset="1" />
    </linearGradient>
    <linearGradient
       id="linearGradient3681">
      <stop
         id="stop3683"
         offset="0" />
      <stop
         id="stop3685"
         style="stop-opacity:0"
         offset="1" />
    </linearGradient>
    <radialGradient
       id="radialGradient2801"
       xlink:href="#linearGradient3681"
       gradientUnits="userSpaceOnUse"
       cy="41.5"
       cx="5"
       gradientTransform="matrix(.59382 0 0 1.5367 -6.6595 -103.94)"
       r="5" />
    <linearGradient
       id="linearGradient2789"
       y2="25.411"
       gradientUnits="userSpaceOnUse"
       x2="57.726"
       gradientTransform="matrix(0 .71282 -.67402 0 50.746 15.046)"
       y1="25.411"
       x1="13.472">
      <stop
         id="stop4224"
         style="stop-color:#fff"
         offset="0" />
      <stop
         id="stop4226"
         style="stop-color:#fff;stop-opacity:0"
         offset="1" />
    </linearGradient>
    <linearGradient
       id="linearGradient2787"
       y2="20.71"
       gradientUnits="userSpaceOnUse"
       x2=".81572"
       gradientTransform="matrix(0 -.61460 -.58384 0 46.949 46.633)"
       y1="20.71"
       x1="28.315">
      <stop
         id="stop2266"
         style="stop-color:#d7e866"
         offset="0" />
      <stop
         id="stop2268"
         style="stop-color:#8cab2a"
         offset="1" />
    </linearGradient>
  </defs>
  <path
     style="fill:#3fc778;fill-opacity:1;stroke:none"
     d="M 21.647058,5 C 14.118269,5 8.0562303,11.093397 8.0055138,18.680145 l -0.00551,0 0,13.869401 0,6.649891 c 0,2.105165 1.4143489,3.799937 3.4999962,3.799937 2.085647,0 3.5,-0.894782 3.5,-2.999948 0,2.105166 2.414353,2.999948 4.5,2.999948 2.419198,0.03292 4.446496,-1.235948 4.500004,-2.999948 0,2.105166 2.414349,2.999948 4.499996,2.999948 2.419198,0.03292 4.446492,-1.235948 4.5,-2.999948 0,2.105166 1.414353,2.999948 3.5,2.999948 2.085647,0 3.500004,-1.694772 3.500004,-3.799937 l 0,-19.949672 0,-0.56962 -0.0055,0 C 39.94377,11.093397 33.881729,5 26.35294,5 Z"
     id="rect4102"
     inkscape:connector-curvature="0"
     sodipodi:nodetypes="scccsscccccsscccss" />
  <rect
     y="15"
     x="30"
     height="8"
     width="8"
     id="rect4123"
     style="fill:#ecf0f1;fill-opacity:1;stroke:none"
     ry="4" />
  <rect
     style="fill:#494949;fill-opacity:1;stroke:none"
     id="rect4129"
     width="3"
     height="3"
     x="35"
     y="17"
     ry="1.5" />
  <rect
     ry="4"
     style="fill:#ecf0f1;fill-opacity:1;stroke:none"
     id="rect4204"
     width="8"
     height="8"
     x="15"
     y="15" />
  <rect
     ry="1.5"
     y="17"
     x="20"
     height="3"
     width="3"
     id="rect4206"
     style="fill:#494949;fill-opacity:1;stroke:none" />
  <path
     style="fill:#ffffff;fill-opacity:1;stroke:none;opacity:0.2"
     d="M 21.646484 5 C 14.117695 5 8.0565759 11.092939 8.0058594 18.679688 L 8 18.679688 L 8 19.679688 L 8.0058594 19.679688 C 8.0565759 12.092939 14.117695 6 21.646484 6 L 26.353516 6 C 33.882305 6 39.943407 12.092939 39.994141 19.679688 L 40 19.679688 L 40 19.25 L 40 18.679688 L 39.994141 18.679688 C 39.943407 11.092939 33.882305 5 26.353516 5 L 21.646484 5 z "
     id="path4208" />
  <path
     style="opacity:0.3;fill:#000000;fill-opacity:1;stroke:none"
     d="m 8,38.198593 0,1 c 0,2.105165 1.4143527,3.800781 3.5,3.800781 2.085647,0 3.5,-0.894834 3.5,-3 0,2.105166 2.414353,3 4.5,3 2.419198,0.03292 4.446492,-1.236 4.5,-3 0,2.105166 2.414353,3 4.5,3 2.419198,0.03292 4.446492,-1.236 4.5,-3 0,2.105166 1.414353,3 3.5,3 2.085647,0 3.5,-1.695616 3.5,-3.800781 l 0,-1 c 0,2.105165 -1.414353,3.800781 -3.5,3.800781 -2.085647,0 -3.5,-0.894834 -3.5,-3 -0.05351,1.764 -2.080802,3.03292 -4.5,3 -2.085647,0 -4.5,-0.894834 -4.5,-3 -0.05351,1.764 -2.080802,3.03292 -4.5,3 -2.085647,0 -4.5,-0.894834 -4.5,-3 0,2.105166 -1.414353,3 -3.5,3 -2.0856473,0 -3.5,-1.695616 -3.5,-3.800781 z"
     id="path4213"
     inkscape:connector-curvature="0" />
</svg>

<?xml version="1.0" encoding="UTF-8" standalone="no"?>
<!-- Created with Inkscape (http://www.inkscape.org/) -->
<svg id="svg2817" xmlns:rdf="http://www.w3.org/1999/02/22-rdf-syntax-ns#" xmlns="http://www.w3.org/2000/svg" height="48" width="48" version="1.0" xmlns:cc="http://creativecommons.org/ns#" xmlns:xlink="http://www.w3.org/1999/xlink" xmlns:dc="http://purl.org/dc/elements/1.1/">
 <metadata id="metadata57">
  <rdf:RDF>
   <cc:Work rdf:about="">
    <dc:format>image/svg+xml</dc:format>
    <dc:type rdf:resource="http://purl.org/dc/dcmitype/StillImage"/>
    <dc:title/>
   </cc:Work>
  </rdf:RDF>
 </metadata>
 <path id="rect4102" d="m21.647 5c-7.529 0-13.591 6.093-13.642 13.68h-0.00551v13.869 6.6499c0 2.1052 1.4143 3.7999 3.5 3.7999 2.0856 0 3.5-0.89478 3.5-2.9999 0 2.1052 2.4144 2.9999 4.5 2.9999 2.4192 0.03292 4.4465-1.2359 4.5-2.9999 0 2.1052 2.4143 2.9999 4.5 2.9999 2.4192 0.03292 4.4465-1.2359 4.5-2.9999 0 2.1052 1.4144 2.9999 3.5 2.9999s3.5-1.6948 3.5-3.7999v-19.95-0.56962h-0.0055c-0.05-7.586-6.112-13.679-13.641-13.679z" fill="#3fc778"/>
 <rect id="rect4123" ry="4" height="8" width="8" y="15" x="30" fill="#ecf0f1"/>
 <rect id="rect4129" ry="1.5" height="3" width="3" y="17" x="35" fill="#494949"/>
 <rect id="rect4204" ry="4" height="8" width="8" y="15" x="15" fill="#ecf0f1"/>
 <rect id="rect4206" ry="1.5" height="3" width="3" y="17" x="20" fill="#494949"/>
 <path id="path4208" opacity=".2" d="m21.646 5c-7.528 0-13.589 6.093-13.64 13.68h-0.006v1h0.0059c0.0507-7.587 6.1121-13.68 13.64-13.68h4.708c7.528 0 13.589 6.093 13.64 13.68h0.006v-0.43-0.57h-0.006c-0.051-7.587-6.112-13.68-13.64-13.68h-4.708z" fill="#fff"/>
 <path id="path4213" opacity=".3" d="m8 38.199v1c0 2.1052 1.4144 3.8008 3.5 3.8008s3.5-0.89483 3.5-3c0 2.1052 2.4144 3 4.5 3 2.4192 0.03292 4.4465-1.236 4.5-3 0 2.1052 2.4144 3 4.5 3 2.4192 0.03292 4.4465-1.236 4.5-3 0 2.1052 1.4144 3 3.5 3s3.5-1.6956 3.5-3.8008v-1c0 2.1052-1.4144 3.8008-3.5 3.8008s-3.5-0.89483-3.5-3c-0.05351 1.764-2.0808 3.0329-4.5 3-2.0856 0-4.5-0.89483-4.5-3-0.05351 1.764-2.0808 3.0329-4.5 3-2.0856 0-4.5-0.89483-4.5-3 0 2.1052-1.4144 3-3.5 3s-3.5-1.6956-3.5-3.8008z"/>
</svg>
